component-icons/svg/tabstrip.svg

<?xml version="1.0" encoding="utf-8"?>
<!-- Generator: Adobe Illustrator 24.2.3, SVG Export Plug-In . SVG Version: 6.00 Build 0)  -->
<svg version="1.1" id="Layer_1" xmlns="http://www.w3.org/2000/svg" xmlns:xlink="http://www.w3.org/1999/xlink" x="0px" y="0px"
	 width="24px" height="24px" viewBox="0 0 24 24" enable-background="new 0 0 24 24" xml:space="preserve">
<path d="M16,0h-4v2h4V0z M18,0v2h4V0H18z M6,16h6l2-2H6V16z M10,0H2v24h16l4-4V4H10V0z M20,6v13.2L17.2,22H4V2h4v4H20z M6,12h10l2-2
	H6V12z"/>
</svg>

<svg id="Layer_1" data-name="Layer 1" xmlns="http://www.w3.org/2000/svg" viewBox="0 0 24 24">
  <defs>
    <style>
      .cls-1 {
        fill: gray;
      }
    </style>
  </defs>
  <title>tabstrip</title>
  <path class="cls-1" d="M16,0H12V2h4Zm2,0V2h4V0ZM6,16h6l2-2H6ZM10,0H2V24H18l4-4V4H10ZM20,6V19.17L17.17,22H4V2H8V6ZM6,12H16l2-2H6Z"/>
</svg>
